SVG_Azure_Grouped/Networking/CDN Optimisation.svg

<?xml version="1.0" encoding="UTF-8" standalone="no"?>
<!-- Generated by Microsoft Visio, SVG Export CDN Optimisation.svg Page-1 -->

<svg
   xmlns:dc="http://purl.org/dc/elements/1.1/"
   xmlns:cc="http://creativecommons.org/ns#"
   xmlns:rdf="http://www.w3.org/1999/02/22-rdf-syntax-ns#"
   xmlns:svg="http://www.w3.org/2000/svg"
   xmlns="http://www.w3.org/2000/svg"
   xmlns:sodipodi="http://sodipodi.sourceforge.net/DTD/sodipodi-0.dtd"
   xmlns:inkscape="http://www.inkscape.org/namespaces/inkscape"
   width="0.66932648in"
   height="0.78757221in"
   viewBox="0 0 48.191507 56.704946"
   xml:space="preserve"
   class="st4"
   version="1.1"
   id="svg45"
   sodipodi:docname="CDN Optimisation.svg"
   style="font-size:12px;overflow:visible;color-interpolation-filters:sRGB;fill:none;fill-rule:evenodd;stroke-linecap:square;stroke-miterlimit:3"
   inkscape:version="0.92.5 (2060ec1f9f, 2020-04-08)"><metadata
   id="metadata49"><rdf:RDF><cc:Work
       rdf:about=""><dc:format>image/svg+xml</dc:format><dc:type
         rdf:resource="http://purl.org/dc/dcmitype/StillImage" /></cc:Work></rdf:RDF></metadata><sodipodi:namedview
   pagecolor="#ffffff"
   bordercolor="#666666"
   borderopacity="1"
   objecttolerance="10"
   gridtolerance="10"
   guidetolerance="10"
   inkscape:pageopacity="0"
   inkscape:pageshadow="2"
   inkscape:window-width="640"
   inkscape:window-height="480"
   id="namedview47"
   showgrid="false"
   inkscape:zoom="1.4191726"
   inkscape:cx="32.127168"
   inkscape:cy="37.792458"
   inkscape:window-x="0"
   inkscape:window-y="0"
   inkscape:window-maximized="0"
   inkscape:current-layer="svg45" />
	<style
   type="text/css"
   id="style2">
	<![CDATA[
		.st1 {fill:#d15900;stroke:none;stroke-linecap:butt;stroke-width:34}
		.st2 {fill:#ffffff;stroke:none;stroke-linecap:butt;stroke-width:34}
		.st3 {fill:url(#grad0-10);stroke:none;stroke-linecap:butt;stroke-width:34}
		.st4 {fill:none;fill-rule:evenodd;font-size:12px;overflow:visible;stroke-linecap:square;stroke-miterlimit:3}
	]]>
	</style>

	<defs
   id="Patterns_And_Gradients">
		<linearGradient
   id="grad0-10"
   x1="-0.00041375824"
   y1="66.647229"
   x2="46.690856"
   y2="66.647229"
   gradientTransform="scale(0.90874324,1.1004208)"
   gradientUnits="userSpaceOnUse">
			<stop
   offset="0"
   stop-color="#ef7100"
   stop-opacity="1"
   id="stop4" />
			<stop
   offset="0.9"
   stop-color="#f78d1e"
   stop-opacity="1"
   id="stop6" />
		</linearGradient>
	</defs>
	<g
   id="g43"
   transform="translate(-33.999624,-33.999421)">
		<title
   id="title10">Page-1</title>
		<g
   id="group18105-1"
   transform="translate(34,-34.0157)">
			<title
   id="title12">CDN Optimisation.18105</title>
			<g
   id="group18106-2">
				<title
   id="title14">MsPortalFx.base.images-59</title>
				<g
   id="shape18107-3"
   transform="translate(0.0101987,-0.1434)">
					<title
   id="title16">Sheet.18107</title>
					<path
   d="m 0.05,73.54 4.12,-4.7 a 2.00915,1.97091 0 0 1 1.51,-0.67 h 39.48 a 2.76385,2.71126 0 0 1 3.02,2.77 v 48.36 a 2.00575,1.96758 0 0 1 -0.65,1.45 l -4.45,3.97 H 2.72 L 0,123.6 Z"
   class="st1"
   id="path18"
   inkscape:connector-curvature="0"
   style="fill:#d15900;stroke:none;stroke-width:34;stroke-linecap:butt" />
				</g>
				<g
   id="shape18108-5"
   transform="translate(3.37238,-2.25438)">
					<title
   id="title21">Sheet.18108</title>
					<path
   d="M 0,75.62 2.52,72.8 a 1.77458,1.74081 0 0 1 1.34,-0.6 h 36.87 a 1.77458,1.74081 0 0 1 1.77,1.74 v 45.97 a 1.77118,1.73747 0 0 1 -0.58,1.29 l -3.93,3.52 z"
   class="st2"
   id="path23"
   inkscape:connector-curvature="0"
   style="fill:#ffffff;stroke:none;stroke-width:34;stroke-linecap:butt" />
				</g>
				<g
   id="shape18109-7">
					<title
   id="title26">Sheet.18109</title>
					<path
   d="M 41.12,73.34 H 0.19 A 0.190376,0.186753 -180 0 0 -3.76e-4,73.526753 L 0,123.44 a 1.30884,1.28393 -180 0 0 1.32,1.28 h 39.8 a 1.30884,1.28393 -180 0 0 1.31,-1.28 V 74.62 a 1.31224,1.28726 -180 0 0 -1.31,-1.28 z"
   class="st3"
   id="path28"
   inkscape:connector-curvature="0"
   style="fill:url(#grad0-10);stroke:none;stroke-width:34;stroke-linecap:butt" />
				</g>
				<g
   id="shape18110-11"
   transform="translate(13.2379,-19.6475)">
					<title
   id="title31">Sheet.18110</title>
					<path
   d="m 15.95,118.89 a 7.69324,7.54683 0 0 1 -2.16,5.29 1.30544,1.28059 0 0 1 -1.96,0.21 1.33943,1.31394 0 0 1 0.02,-1.98 5.32033,5.21908 -180 0 0 0,-7.25 1.32583,1.3006 0 1 1 1.95,-1.74 7.85642,7.7069 0 0 1 2.15,5.47 z M 0,118.88 a 8.09779,7.94368 0 0 1 2.16,-5.44 1.33263,1.30727 0 1 1 1.94,1.76 5.32033,5.21908 -180 0 0 0,7.2 1.35983,1.33395 0 0 1 0,2.02 A 1.29524,1.27059 0 0 1 2.24,124.25 8.04679,7.89365 0 0 1 0,118.88 Z m 5.76,-0.12 a 2.23352,2.19101 0 0 1 2.24,-2.19 2.2630748,2.22 0 0 1 0,4.44 2.20972,2.16767 0 0 1 -2.24,-2.25 z"
   class="st2"
   id="path33"
   inkscape:connector-curvature="0"
   style="fill:#ffffff;stroke:none;stroke-width:34;stroke-linecap:butt" />
				</g>
				<g
   id="shape18111-13"
   transform="translate(6.415,-16.9731)">
					<title
   id="title36">Sheet.18111</title>
					<path
   d="m 29.58,116.01 a 11.4532,11.2352 0 0 1 -3.24,7.9 1.94796,1.91088 0 0 1 -2.91,0.33 1.99895,1.96091 0 0 1 0.03,-2.95 7.93121,7.78027 -180 0 0 0,-10.81 1.97855,1.9409 0 1 1 2.91,-2.6 11.6843,11.462 0 0 1 3.21,8.13 z M 0,115.77 a 11.4532,11.2352 -180 0 0 3.24,7.89 1.94796,1.91088 -180 0 0 2.9,0.34 1.99895,1.96091 -180 0 0 -0.02,-2.98 7.93461,7.7836 0 0 1 0,-10.81 1.97855,1.9409 -180 1 0 -2.9,-2.6 11.7013,11.4786 -180 0 0 -3.22,8.16 z"
   class="st2"
   id="path38"
   inkscape:connector-curvature="0"
   style="fill:#ffffff;stroke:none;stroke-width:34;stroke-linecap:butt" />
				</g>
			</g>
		</g>
	</g>
</svg>

<?xml version="1.0" encoding="UTF-8" standalone="no"?>
<!DOCTYPE svg PUBLIC "-//W3C//DTD SVG 1.1//EN" "http://www.w3.org/Graphics/SVG/1.1/DTD/svg11.dtd">
<!-- Generated by Microsoft Visio, SVG Export CDN Optimisation.svg Page-1 -->
<svg xmlns="http://www.w3.org/2000/svg" xmlns:xlink="http://www.w3.org/1999/xlink" xmlns:ev="http://www.w3.org/2001/xml-events"
		width="1.61375in" height="1.73223in" viewBox="0 0 116.19 124.72" xml:space="preserve" color-interpolation-filters="sRGB"
		class="st4">
	<style type="text/css">
	<![CDATA[
		.st1 {fill:#d15900;stroke:none;stroke-linecap:butt;stroke-width:34}
		.st2 {fill:#ffffff;stroke:none;stroke-linecap:butt;stroke-width:34}
		.st3 {fill:url(#grad0-10);stroke:none;stroke-linecap:butt;stroke-width:34}
		.st4 {fill:none;fill-rule:evenodd;font-size:12px;overflow:visible;stroke-linecap:square;stroke-miterlimit:3}
	]]>
	</style>

	<defs id="Patterns_And_Gradients">
		<linearGradient id="grad0-10" x1="0" y1="0" x2="1" y2="0" gradientTransform="rotate(-90 0.5 0.5)">
			<stop offset="0" stop-color="#ef7100" stop-opacity="1"/>
			<stop offset="0.9" stop-color="#f78d1e" stop-opacity="1"/>
		</linearGradient>
	</defs>
	<g>
		<title>Page-1</title>
		<g id="group17691-1" transform="translate(34,-34.0157)">
			<title>CDN Optimisation.17691</title>
			<g id="group17692-2">
				<title>MsPortalFx.base.images-59</title>
				<g id="shape17693-3" transform="translate(0.0101987,-0.1434)">
					<title>Sheet.17693</title>
					<path d="M0.05 73.54 L4.17 68.84 A2.00915 1.97091 0 0 1 5.68 68.17 L45.16 68.17 A2.76385 2.71126 0 0 1 48.18
								 70.94 L48.18 119.3 A2.00575 1.96758 0 0 1 47.53 120.75 L43.08 124.72 L2.72 124.72 L0 123.6 L0.05
								 73.54 Z" class="st1"/>
				</g>
				<g id="shape17694-5" transform="translate(3.37238,-2.25438)">
					<title>Sheet.17694</title>
					<path d="M0 75.62 L2.52 72.8 A1.77458 1.74081 0 0 1 3.86 72.2 L40.73 72.2 A1.77458 1.74081 0 0 1 42.5 73.94 L42.5
								 119.91 A1.77118 1.73747 0 0 1 41.92 121.2 L37.99 124.72 L0 75.62 Z" class="st2"/>
				</g>
				<g id="shape17695-7">
					<title>Sheet.17695</title>
					<path d="M41.12 73.34 L0.19 73.34 a0.190376 0.186753 -180 0 0 -0.190376 0.186753 L0 123.44 A1.30884 1.28393 -180
								 0 0 1.32 124.72 L41.12 124.72 A1.30884 1.28393 -180 0 0 42.43 123.44 L42.43 74.62 A1.31224 1.28726
								 -180 0 0 41.12 73.34 Z" class="st3"/>
				</g>
				<g id="shape17696-11" transform="translate(13.2379,-19.6475)">
					<title>Sheet.17696</title>
					<path d="M15.95 118.89 A7.69324 7.54683 0 0 1 13.79 124.18 A1.30544 1.28059 0 0 1 11.83 124.39 A1.33943 1.31394
								 0 0 1 11.85 122.41 A5.32033 5.21908 -180 0 0 11.85 115.16 A1.32583 1.3006 0 1 1 13.8 113.42 A7.85642
								 7.7069 0 0 1 15.95 118.89 ZM0 118.88 A8.09779 7.94368 0 0 1 2.16 113.44 A1.33263 1.30727 0 1 1 4.1
								 115.2 A5.32033 5.21908 -180 0 0 4.1 122.4 A1.35983 1.33395 0 0 1 4.1 124.42 A1.29524 1.27059 0 0
								 1 2.24 124.25 A8.04679 7.89365 0 0 1 0 118.88 ZM5.76 118.76 A2.23352 2.19101 0 0 1 8 116.57 A2.26072
								 2.21769 0 0 1 8 121.01 A2.20972 2.16767 0 0 1 5.76 118.76 Z" class="st2"/>
				</g>
				<g id="shape17697-13" transform="translate(6.415,-16.9731)">
					<title>Sheet.17697</title>
					<path d="M29.58 116.01 A11.4532 11.2352 0 0 1 26.34 123.91 A1.94796 1.91088 0 0 1 23.43 124.24 A1.99895 1.96091
								 0 0 1 23.46 121.29 A7.93121 7.78027 -180 0 0 23.46 110.48 A1.97855 1.9409 0 1 1 26.37 107.88 A11.6843
								 11.462 0 0 1 29.58 116.01 ZM0 115.77 A11.4532 11.2352 -180 0 0 3.24 123.66 A1.94796 1.91088 -180
								 0 0 6.14 124 A1.99895 1.96091 -180 0 0 6.12 121.02 A7.93461 7.7836 0 0 1 6.12 110.21 A1.97855 1.9409
								 -180 1 0 3.22 107.61 A11.7013 11.4786 -180 0 0 -0 115.77 Z" class="st2"/>
				</g>
			</g>
		</g>
	</g>
</svg>
